src/lib/packages/icons/src/assets/line/face-frown.svg

<svg xmlns="http://www.w3.org/2000/svg" width="24" height="24" fill="none"><path fill="currentColor" d="M12 22.75C6.07 22.75 1.25 17.93 1.25 12S6.07 1.25 12 1.25 22.75 6.07 22.75 12 17.93 22.75 12 22.75Zm0-20C6.9 2.75 2.75 6.9 2.75 12S6.9 21.25 12 21.25s9.25-4.15 9.25-9.25S17.1 2.75 12 2.75ZM16.25 10c0-1.01-.53-1.75-1.25-1.75s-1.25.74-1.25 1.75.53 1.75 1.25 1.75 1.25-.74 1.25-1.75Zm-6 0c0-1.01-.53-1.75-1.25-1.75S7.75 8.99 7.75 10s.53 1.75 1.25 1.75 1.25-.74 1.25-1.75Zm6.2 7.6c.33-.25.4-.72.15-1.05a5.774 5.774 0 0 0-4.59-2.3c-1.79 0-3.49.84-4.6 2.3a.749.749 0 1 0 1.19.91c.82-1.08 2.06-1.7 3.4-1.7 1.34 0 2.59.64 3.39 1.7.15.2.37.3.6.3.16 0 .31-.05.45-.15l.01-.01Z"/></svg>

<svg width="24" height="24" viewBox="0 0 24 24" fill="none" xmlns="http://www.w3.org/2000/svg">
<path d="M12 22.75C6.07 22.75 1.25 17.93 1.25 12C1.25 6.07 6.07 1.25 12 1.25C17.93 1.25 22.75 6.07 22.75 12C22.75 17.93 17.93 22.75 12 22.75ZM12 2.75C6.9 2.75 2.75 6.9 2.75 12C2.75 17.1 6.9 21.25 12 21.25C17.1 21.25 21.25 17.1 21.25 12C21.25 6.9 17.1 2.75 12 2.75ZM16.25 10C16.25 8.99 15.72 8.25 15 8.25C14.28 8.25 13.75 8.99 13.75 10C13.75 11.01 14.28 11.75 15 11.75C15.72 11.75 16.25 11.01 16.25 10ZM10.25 10C10.25 8.99 9.72 8.25 9 8.25C8.28 8.25 7.75 8.99 7.75 10C7.75 11.01 8.28 11.75 9 11.75C9.72 11.75 10.25 11.01 10.25 10ZM16.45 17.6C16.78 17.35 16.85 16.88 16.6 16.55C15.52 15.11 13.8 14.25 12.01 14.25C10.22 14.25 8.52 15.09 7.41 16.55C7.16 16.88 7.22 17.35 7.55 17.6C7.88 17.85 8.35001 17.79 8.60001 17.46C9.42001 16.38 10.66 15.76 12 15.76C13.34 15.76 14.59 16.4 15.39 17.46C15.54 17.66 15.76 17.76 15.99 17.76C16.15 17.76 16.3 17.71 16.44 17.61L16.45 17.6Z" fill="currentColor"/>
</svg>
